X:1
T:Cricket Moon
C:Sarah Gowan 9/2008 
M:C|
L:1/4
R:reel
K:Em
"Em"EB,E>G|Ed"G"B>B|dBBd|"A"^c/B/A"B7"B>B|
"G"d>d"A"^cA|"G"BA/G/ "D"F D|"C"C/D/E/G/ "D"FD|"Em"B,EED:|
|:"Em"Ee "D"Ed|"C"Ec "B7"B>B|"C"cB/A/ G/A/B/A/|GA/G/ "D"FB,|
"Em"Ee "D"Ed|"C"Ec "B7"B>B|"Em"B/c/B/A/ GE|"D"FG/F/ "Em"ED:|
